!!!!SEGMENT: Any1001b-Missa_Vulnerasti_cor_meum-Gloria.krn
!!!id: Any1001b
!!!OTL: Gloria
!!!AGN: Mass; Gloria
!!!voices: 4
!!!COM: Anonymous
!!!OPR: Missa Vulnerasti cor meum
**kern	**kern	**kern	**kern
*part4	*part3	*part2	*part1
*staff4	*staff3	*staff2	*staff1
*I"Bassus	*I"Tenor	*I"Altus	*I"Superius
*I'B	*I'T	*I'A	*I'S
*clefF4	*clefGv2	*clefGv2	*clefG2
*k[b-]	*k[b-]	*k[b-]	*k[b-]
*F:	*F:	*F:	*F:
*M3/1	*M3/1	*M3/1	*M3/1
*met(O)	*met(O)	*met(O)	*met(O)
!!section: Et in terra
!!!OMD: Et in terra
=1	=1	=1	=1
1d	0.r	0.r	0.r
2d	.	.	.
1d	.	.	.
4c	.	.	.
4B-y	.	.	.
=2	=2	=2	=2
2c	0.r	1r	0.r
2d	.	.	.
2.G	.	1g	.
4A	.	.	.
2B-y	.	2g	.
2c	.	[2g	.
=3	=3	=3	=3
2B-y	0.r	2g]	0.r
4A	.	4f	.
4G	.	4e	.
2A	.	2f	.
2G	.	2g	.
2.B-y	.	2.d	.
4c	.	4e	.
=4	=4	=4	=4
2d	0.r	4f	0.r
.	.	4g	.
2.c	.	2.a	.
4B-y	.	4g	.
4A	.	1g	.
4G	.	.	.
1A	.	.	.
.	.	2f#i	.
=5	=5	=5	=5
0G	0.r	2g	1dd
.	.	2b-y	.
.	.	2b-y	2dd
.	.	4a	1dd
.	.	4g	.
1r	.	2.f	.
.	.	.	4cc
.	.	4g	4b-y
=6	=6	=6	=6
1r	0.r	2a	2cc
.	.	2d	2dd
1d	.	2.f	2.a
.	.	4g	4b-y
1c	.	2a	4cc
.	.	.	4dd
.	.	[2g	[2ee
=7	=7	=7	=7
1B-y	0.r	4g]	4ee]
.	.	4f	4dd
.	.	4e	1dd
.	.	4d	.
1A	.	1e	.
.	.	.	2cc#i
1B-y	.	1d	1dd
=8	=8	=8	=8
2G	0.r	2d	0.r
2.A	.	2c	.
.	.	2d	.
4G	.	.	.
1G	.	2c	.
.	.	1A	.
2F#i	.	.	.
=9	=9	=9	=9
0.G	1g	0G	0.r
.	2g	.	.
.	1g	.	.
.	.	2r	.
.	4f	2g	.
.	4e	.	.
=10	=10	=10	=10
2r	2f	2a	1dd
2.G	2g	1b-y	.
.	2d	.	2.dd
4A	.	.	.
2.B-y	1d	4a	.
.	.	4g	4ee
.	.	2f	2ff
4c	.	.	.
2d	2d	[2b-y	[2dd
=11	=11	=11	=11
2B-y	2d	4b-]	2dd]
.	.	4a	.
2.d	1f	1a	4cc
.	.	.	4b-y
.	.	.	2a
4c	.	.	.
2B-y	4e	2g	1dd
.	4d	.	.
1A	1e	1a	.
.	.	.	2cc#i
=12	=12	=12	=12
1D	0d	2.f	0.dd
.	.	4g	.
2r	.	2a	.
2G	.	1b-y	.
2G	1r	.	.
2G	.	4a	.
.	.	4g	.
=13	=13	=13	=13
2.B-y	2r	1f	0.r
.	2d	.	.
4A	.	.	.
2G	2d	1r	.
4F	2d	.	.
4E	.	.	.
4D	2f	1r	.
4E	.	.	.
4F	4e	.	.
4G	4d	.	.
=14	=14	=14	=14
2A	2c	0.r	0.r
2.G	2.e	.	.
4D	4d	.	.
2F	1d	.	.
1E	.	.	.
.	2c#i	.	.
=15	=15	=15	=15
2D	0.d	2r	2r
2G	.	2b-y	2b-y
2G	.	2g	2b-y
2G	.	2g	2b-y
2G	.	2g	2b-y
2G	.	2g	2b-y
=16	=16	=16	=16
1d	0.r	2f	2.a
.	.	2.a	.
.	.	.	4b-y
2c	.	.	2cc
.	.	4g	.
2B-y	.	1g	2dd
1A	.	.	1cc
.	.	2f#i	.
=17	=17	=17	=17
0.G	0d	1g	[0.b-y
.	.	2r	.
.	.	2g	.
.	1d	2g	.
.	.	2g	.
=18	=18	=18	=18
2r	1d	2.b-y	0b-]
2G	.	.	.
.	.	4a	.
2G	0d	2g	.
2G	.	4f	.
.	.	4e	.
2.B-y	.	1d	2r
.	.	.	2dd
4A	.	.	.
=19	=19	=19	=19
2G	0d	1r	2dd
4F	.	.	2dd
4E	.	.	.
1D	.	2r	2.ff
.	.	2d	.
.	.	.	4ee
2r	1f	2d	2.dd
2d	.	2d	.
.	.	.	8cc
.	.	.	8b-y
=20	=20	=20	=20
2.d	0f	2.f	2a
.	.	.	2.cc
4c	.	4e	.
2B-y	.	2d	.
.	.	.	4b-y
4A	.	4c	1b-y
4G	.	4B-y	.
1F	1f	1c	.
.	.	.	2a
=21	=21	=21	=21
0.G	1d	0.B-y	1b-y
.	2r	.	2r
.	2d	.	2b-y
.	2d	.	2b-y
.	2d	.	2b-y
=22	=22	=22	=22
0.r	2.c	0.r	1a
.	4d	.	.
.	2e	.	2g
.	2.f	.	1a
.	4e	.	.
.	[2d	.	4g
.	.	.	4f
=23	=23	=23	=23
1r	2d]	1r	1e
.	2c#i	.	.
2r	0d	2r	0d
2G	.	2B-y	.
2G	.	2B-y	.
2G	.	2B-y	.
=24	=24	=24	=24
2.F	0.r	2.A	0.r
4G	.	4B-y	.
2A	.	2c	.
2.B-y	.	1d	.
4A	.	.	.
[2G	.	4c	.
.	.	4B-y	.
=25	=25	=25	=25
2G]	1r	1A	1r
2F#i	.	.	.
0G	1r	1G	2r
.	.	.	2dd
.	2r	2r	2dd
.	2d	2g	2dd
=26	=26	=26	=26
2r	2.e	2.g	2.cc
2c	.	.	.
.	4f	4f	4dd
2c	2g	4e	2ee
.	.	4d	.
2.d	4f	1a	2.ff
.	4e	.	.
.	1d	.	.
4c	.	.	4ee
2B-y	.	2g	[2dd
=27	=27	=27	=27
1A	1e	0a	2dd]
.	.	.	2cc#i
2r	2r	.	0dd
2.D	2d	.	.
.	2d	2r	.
4E	.	.	.
[2F	2d	2a	.
=28	=28	=28	=28
4F]	2.c	2a	0.r
4G	.	.	.
4A	.	2a	.
4B-y	4d	.	.
2c	2e	2g	.
2.d	2.f	2.b-y	.
4c	4e	4a	.
2B-y	[2d	[2g	.
=29	=29	=29	=29
1A	2d]	2g]	2r
.	2c	2f	1cc
1G	1d	1g	.
.	.	.	2b-y
2.A	2r	2.f	2cc
.	2c	.	[2a
4G	.	4e	.
=30	=30	=30	=30
2F	2d	2d	4a]
.	.	.	4g
2E	2G	2c	1g
1D	1A	0d	.
.	.	.	2f#i
2r	1G	.	1g
2G	.	.	.
=31	=31	=31	=31
2G	0.r	2r	0.r
2G	.	2d	.
1B-y	.	2d	.
.	.	2d	.
1A	.	1f	.
=32	=32	=32	=32
2G	0.r	2e	0.r
2B-y	.	2d	.
1A	.	1f	.
[1G	.	1e	.
=33	=33	=33	=33
0.G]	1g	0.d	1r
.	2g	.	1dd
.	2g	.	.
.	2g	.	2dd
.	4f	.	2dd
.	4e	.	.
=34	=34	=34	=34
0.r	2d	0.r	2dd
.	1f	.	4cc
.	.	.	4b-y
.	.	.	2a
.	4e	.	2.cc
.	4d	.	.
.	2e	.	.
.	.	.	4b-y
.	[2f	.	4a
.	.	.	4g
=35	=35	=35	=35
0.r	4f]	0.r	2f
.	4g	.	.
.	1a	.	1ff
.	4g	.	4ee
.	4f	.	4dd
.	2g	.	4ee
.	.	.	4dd
.	[2a	.	4cc
.	.	.	4b-y
=36	=36	=36	=36
0.r	2a]	0.r	4a
.	.	.	4b-y
.	4g	.	4cc
.	4f	.	4dd
.	4g	.	2ee
.	4f	.	.
.	4e	.	1dd
.	4d	.	.
.	1e	.	.
.	.	.	2cc#i
=37	=37	=37	=37
1d	0.d	1d	0.dd
2d	.	2f	.
2d	.	2f	.
2G	.	2g	.
[2d	.	2a	.
=38	=38	=38	=38
2d]	0.r	2b-y	0.r
4c	.	2.a	.
4B-y	.	.	.
4c	.	.	.
4B-y	.	4g	.
4A	.	1g	.
4G	.	.	.
1A	.	.	.
.	.	2f#i	.
=39	=39	=39	=39
0G	1r	0g	1dd
.	2r	.	2dd
.	2d	.	2dd
1r	2e	1r	1cc
.	2f	.	.
=40	=40	=40	=40
0.r	2g	0.r	2b-y
.	2e	.	2.cc
.	2f	.	.
.	.	.	4b-y
.	2d	.	1b-y
.	1c	.	.
.	.	.	2a
=41	=41	=41	=41
2r	0B-y	2r	1b-y
2G	.	2d	.
2G	.	2d	2r
2G	.	2d	1b-y
1G	2r	1g	.
.	2d	.	2b-y
=42	=42	=42	=42
2r	2c	2r	2a
2G	2B-y	2e	2g
2F	2c	2f	2a
2G	4B-y	1d	1b-y
.	4A	.	.
1E-X	1G	.	.
.	.	2c	4a
.	.	.	4g
=43	=43	=43	=43
[0.Dl	1A	[0.dl	[0.fl
.	1B-y	.	.
.	[1Al	.	.
=44	=44	=44	=44
00D]	00A]	00d]	00f]
=45||	=45||	=45||	=45||
*M2/1	*M2/1	*M2/1	*M2/1
*met(C|)	*met(C|)	*met(C|)	*met(C|)
!!section: Qui tollis
!!!OMD: Qui tollis
0d	0r	1a	1.ff
.	.	2b-y	.
.	.	[2a	[2ff
=46	=46	=46	=46
1d	0r	2a]	2ff]
.	.	4g	4ee
.	.	4f	4dd
1c	.	2g	4ee
.	.	.	4dd
.	.	2a	4cc
.	.	.	4b-y
=47	=47	=47	=47
1d	0r	1f	1a
2c	.	2e	2r
[2d	.	[2d	[2f
=48	=48	=48	=48
2d]	0r	4d]	4f]
.	.	4e	4g
4c	.	4f	4a
4B-y	.	4g	4b-y
2A	.	1a	4cc
.	.	.	4dd
[2c	.	.	4ee
.	.	.	4ff
=49	=49	=49	=49
2c]	0r	2g	2ee
2B-y	.	2d	1dd
1A	.	1e	.
.	.	.	2cc#i
=50	=50	=50	=50
2r	0d	1d	1dd
1B-y	.	.	.
.	.	2r	1r
4A	.	[2d	.
4G	.	.	.
=51	=51	=51	=51
1F	1f	2d]	1a
.	.	2c	.
1G	2e	2.B-y	2g
.	[2d	.	[2b-y
.	.	4c	.
=52	=52	=52	=52
1F	4d]	4d	4b-]
.	4c	4e	4a
.	4B-y	2f	1a
.	4A	.	.
1G	1B-y	2d	.
.	.	2e	2g
=53	=53	=53	=53
0D	0A	1f	1a
.	.	2r	2f
.	.	[2a	[2ff
=54	=54	=54	=54
2r	0r	2a]	2ff]
1d	.	2a	2ff
.	.	2b-y	2ff
2d	.	[2a	2ff
=55	=55	=55	=55
2d	0r	2a]	2ff
2d	.	4g	4ee
.	.	4f	4dd
1c	.	2g	4ee
.	.	.	4dd
.	.	2a	4cc
.	.	.	4b-y
=56	=56	=56	=56
1d	0r	1f	1a
2c	.	2e	2r
[2d	.	[2d	[2f
=57	=57	=57	=57
2d]	0r	4d]	4f]
.	.	4e	4g
4c	.	4f	4a
4B-y	.	4g	4b-y
2A	.	1a	4cc
.	.	.	4dd
[2c	.	.	4ee
.	.	.	4ff
=58	=58	=58	=58
2c]	0r	2g	2ee
2B-y	.	2d	1dd
1A	.	1e	.
.	.	.	2cc#i
=59	=59	=59	=59
2r	0d	2d	1dd
2B-y	.	1g	.
2.B-y	.	.	2r
.	.	2f	2b-y
4A	.	.	.
=60	=60	=60	=60
2.G	1d	1g	2b-y
.	.	.	4a
4A	.	.	4g
4B-y	1d	2r	1f
4c	.	.	.
2d	.	2f	.
=61	=61	=61	=61
2B-y	0d	4f	2r
.	.	4e	.
2.d	.	4d	2ff
.	.	4c	.
.	.	1B-y	4ff
4c	.	.	4ee
4B-y	.	.	4dd
4A	.	.	4cc
=62	=62	=62	=62
1G	0g	1r	2b-y
.	.	.	4cc
.	.	.	4dd
1G	.	1b-y	2ee-X
.	.	.	[2dd
=63	=63	=63	=63
2.D	1.f	1.a	2dd]
.	.	.	4cc
4E	.	.	4b-y
4F	.	.	2a
4G	.	.	.
[2A	2e	[2a	[2cc
=64	=64	=64	=64
2A]	2f	4a]	4cc]
.	.	4g	4b-y
2B-y	2d	4f	1b-y
.	.	4e	.
1F	1c	1f	.
.	.	.	2a
=65	=65	=65	=65
2r	[0B-y	2d	[0b-y
2.B-y	.	1g	.
4c	.	.	.
2d	.	2f	.
=66	=66	=66	=66
1G	0B-]	1g	0b-]
1d	.	2r	.
.	.	2b-y	.
=67	=67	=67	=67
2.c	0r	2.a	0r
4B-y	.	4g	.
2A	.	2f	.
2G	.	[2e	.
=68	=68	=68	=68
2F	1r	4e]	1r
.	.	4d	.
4E	.	1d	.
4D	.	.	.
1E	1g	.	1g
.	.	2c#i	.
=69	=69	=69	=69
[0D	2.f	[0d	2.dd
.	4e	.	4cc
.	2d	.	2b-y
.	2c	.	[2a
=70	=70	=70	=70
0D]	2B-y	0d]	4a]
.	.	.	4g
.	4A	.	1g
.	4G	.	.
.	1A	.	.
.	.	.	2f#i
=71	=71	=71	=71
*M3/2	*M3/2	*M3/2	*M3/2
*met(O/3)	*met(O/3)	*met(O/3)	*met(O/3)
*Xtuplet	*Xtuplet	*Xtuplet	*Xtuplet
3%2r	0G	3%2r	3%4.g
3%2r	.	3%2r	.
3%2B-y	.	3%2d	.
=72	=72	=72	=72
3%2B-y	0r	3%2d	3%2r
3%2A	.	3%2f	3%2r
3G	.	3%2g	3%2r
3A	.	.	.
=73	=73	=73	=73
3%2B-y	0r	3f	3%2r
.	.	3d	.
3%2c	.	3%2e	3%2r
3%2d	.	3%2d	3%2r
=74	=74	=74	=74
3%2G	3%2d	3%2g	3%2b-y
3%2G	3%2d	3%2g	3%2b-y
3%2B-y	3%2d	3%2f	3%2b-y
=75	=75	=75	=75
3%2F	3%2c	3%2f	3%2a
3G	3B-y	3d	3g
3E	3G	3c	3g
3%2D	3%2A	3%2d	3%2f
=76	=76	=76	=76
3%4G	3%4G	3%4d	3%4g
3%2G	3%2d	3%2g	3%2b-y
=77	=77	=77	=77
3%2G	3%2d	3%2g	3%2b-y
3%2A	3%2c	3%2f	3%2a
3%2G	3%2d	3%2g	3%2b-y
=78	=78	=78	=78
3%2G	3%2B-y	3%2e	3%2g
[3%4D	3%4A	3%4d	3%4f
=79	=79	=79	=79
3%4D]	3%2.d	3%2.a	3%2.ff
.	3d	3a	3ff
3%2r	3%2e	3%2g	3%2ee
=80	=80	=80	=80
3%2d	3%2f	3%2f	3%2dd
3%4c	3%2.g	3%2.e	3%2.ee
.	6f	3f	3dd
.	6e	.	.
=81	=81	=81	=81
3%2B-y	3%2d	3%2g	3%4dd
3%4A	3%4e	3%4a	.
.	.	.	3%2cc#i
=82	=82	=82	=82
3%4D	3%4d	3%2f	3%2dd
.	.	3%2f	3%2dd
3%2r	3%2r	3%2e	3%2cc
=83	=83	=83	=83
3%2G	3%4d	3%2d	3%2b-y
3%2D	.	3%2.f	3%2.a
3%2F	3%2c	.	.
.	.	3e	3g
=84	=84	=84	=84
3%2G	3%2B-y	3%2d	3%4g
3%2E	3%2G	3%2c	.
3%2D	3%2A	3%2d	3%2f#i
=85	=85	=85	=85
3%2r	3%4G	3%2r	3%4g
3%2r	.	3%2r	.
3%2G	3%2g	3%2d	3%2b-y
=86	=86	=86	=86
3%2G	3%2g	3%2d	3%2b-y
3%2G	3%2g	3%2d	3%2b-y
3%2F	3%2a	[3%2f	3%2cc
=87	=87	=87	=87
3%4B-y	3%2f	3%2f]	3%4dd
.	3%2d	3%2g	.
3%2A	3%2e	3%2a	3%2cc
=88	=88	=88	=88
3%4B-y	3%4d	3%4f	3%4dd
3%2B-y	3%2d	3%2b-y	3%2dd
=89	=89	=89	=89
3%2.G	3%2.g	3%2.b-y	3%2.dd
3G	3g	3b-y	3dd
3%2G	3%2g	3%2b-y	3%2dd
=90	=90	=90	=90
3%4d	3%2f	3%4a	3%4ff
.	3%2d	.	.
3%2c	3%2e	3%2a	3%2ee
=91	=91	=91	=91
3%2B-y	3%4f	3%2b-y	3%2dd
3%2F	.	3%2.a	3%2.cc
3%2A	3%2e	.	.
.	.	3g	3b-y
=92	=92	=92	=92
3%2B-y	3%2d	3%2f	3%4b-y
3%2G	3%2B-y	3%2e	.
3%2F	3%2c	3%2f	3%2a
=93	=93	=93	=93
3%4G	3%4B-y	3%2d	3%4b-y
.	.	3%2.g	.
3%2G	3%2d	.	3%2b-y
.	.	3f	.
=94	=94	=94	=94
3%2A	3%2c	3%2e	3%4a
3%2F	3%2A	3%2f	.
3%2G	3%2B-y	3%2d	3%2g
=95	=95	=95	=95
3%2.F	3%4c	3%4f	3%4a
3G	.	.	.
3%2A	3%2c	3%2f	3%2a
=96	=96	=96	=96
3%2G	3%4d	3%2g	3%2b-y
3%2D	.	3%2.f	3%2.a
3%2F	3%2d	.	.
.	.	3e	3g
=97	=97	=97	=97
3%2G	3%2B-y	3%2d	3%2b-y
3%2F	3%2c	3%2.f	3%2.a
3%2D	3%2d	.	.
.	.	3e	3g
=98	=98	=98	=98
3%2G	3%2G	3%2d	3%2b-y
3%2F	3%2A	3f	3%2.a
.	.	3e	.
3%2G	3%2B-y	3%2d	.
.	.	.	3g
=99	=99	=99	=99
3%2C	3%2c	3%2e-X	3%4g
3%4D	3%4A	3%4d	.
.	.	.	3%2f#i
=100	=100	=100	=100
00Gl	00Gl	00dl	00gl
==	==	==	==
*-	*-	*-	*-
!!!system-decoration: [*]
!!!RDF**kern: i = editorial accidental
!!!RDF**kern: l = terminal long
!!!ENC: David Burn
!!!END: 2025/2/14
!!!EED: Benjamin Ory
!!!EEV: 2025/2/14
!!!YEC: Copyright 2025 David Burn, All Rights Reserved
!!!ONB: Translated from MusicXML on 2025/2/14
!!!verovio: header encoded
!!!header-left: Edited by @{ENC} (2025)\n
!!!header-right:
!!!header-center: